X:30
T:L\'evis Beaulieu
M:4/4
L:1/8
K:A
ed |: c2AA AcBA | FBAF E3A | BABc d2B2 | AAAc efed |
c2AA AcBA | FBAF E3A | BABc dBed |1 c2A2 A2ed :|2 c2A2 A2ce |:
a2ab a=ged | cAce a2ef | =g2ga ged=c | B=GBd =g2 (3efg |
a2ab a=ged | cAce a2ee | efec dBed |1 c2A2A2 ce :|2 c2A2 A4 |]

